src/assets/icons/pencil.svg

<svg width="16" height="16" viewBox="0 0 16 16" fill="none" xmlns="http://www.w3.org/2000/svg">
<path d="M15.18 0.819965C14.9206 0.559269 14.612 0.352581 14.2721 0.211842C13.9323 0.0711039 13.568 -0.000894229 13.2001 8.38267e-06C12.8323 -0.000894229 12.468 0.0711039 12.1281 0.211842C11.7883 0.352581 11.4797 0.559269 11.2202 0.819965L0.684811 11.3554L0.00884709 15.2992C-0.0076613 15.3936 -0.000998357 15.4906 0.0282634 15.5819C0.0575252 15.6731 0.108511 15.7559 0.176838 15.8232C0.288832 15.9352 0.444824 15.9992 0.600815 15.9992C0.632814 15.9992 0.668812 15.9992 0.70081 15.9912L4.6446 15.3152L15.18 4.77975C15.4407 4.52027 15.6474 4.2117 15.7882 3.87187C15.9289 3.53203 16.0009 3.16768 16 2.79986C16.0009 2.43204 15.9289 2.06768 15.7882 1.72785C15.6474 1.38802 15.4407 1.07945 15.18 0.819965ZM4.06863 14.1952L1.33678 14.6632L1.80475 11.9314L9.24435 4.49177L11.5082 6.75565L4.06863 14.1952ZM12.3562 5.90769L10.0923 3.64381L12.0682 1.66792C12.6722 1.06395 13.7241 1.06395 14.3321 1.66792C14.6321 1.96822 14.8007 2.37536 14.8007 2.79986C14.8007 3.22436 14.6321 3.6315 14.3321 3.9318L12.3562 5.90769Z" fill="#0A0A0A"/>
</svg>

<svg xmlns="http://www.w3.org/2000/svg" width="16" height="16" fill="none"><path fill="#0a0a0a" d="M15.18.82A2.78 2.78 0 0 0 13.2 0a2.78 2.78 0 0 0-1.98.82L.685 11.355.009 15.3a.59.59 0 0 0 .168.524A.6.6 0 0 0 .6 16c.032 0 .068 0 .1-.008l3.944-.676L15.18 4.78A2.79 2.79 0 0 0 16 2.8a2.79 2.79 0 0 0-.82-1.98M4.069 14.195l-2.732.468.468-2.732 7.44-7.44 2.263 2.265zm8.287-8.287-2.264-2.264 1.976-1.976c.604-.604 1.656-.604 2.264 0a1.6 1.6 0 0 1 0 2.264z"/></svg>
